icons/desktop/16/svg/vertical-scrolling-16.svg

<svg width="16" height="16" viewBox="0 0 16 16" fill="none" xmlns="http://www.w3.org/2000/svg">
<path d="M4.41528 13.2236C6.80219 12.9227 9.24159 12.9246 11.6145 13.2275C12.6443 13.3597 13.4805 14.0661 13.8264 15H12.0315C11.8595 14.858 11.659 14.7468 11.425 14.7168C9.17606 14.4298 6.86475 14.4279 4.60376 14.7129C4.36288 14.7429 4.15669 14.8561 3.97876 15H2.17505C2.52505 14.063 3.37229 13.3556 4.41528 13.2236Z" fill="black"/>
<path fill-rule="evenodd" clip-rule="evenodd" d="M8.00024 4.25C9.05402 4.25001 10.2714 4.309 11.6155 4.48047L11.6145 4.48145C12.9893 4.65634 14.0002 5.84087 14.0002 7.20801V8.79199C14.0002 10.1862 12.9616 11.3504 11.5852 11.5244C10.5078 11.661 9.30621 11.75 8.00024 11.75C6.94647 11.75 5.72907 11.691 4.38501 11.5195C3.01051 11.3444 2.00024 10.1589 2.00024 8.79199V7.20801C2.00024 5.81377 3.03877 4.64953 4.41528 4.47559C5.49266 4.33901 6.69429 4.25 8.00024 4.25ZM8.00024 5.75C6.7626 5.75 5.62413 5.83451 4.60376 5.96387C3.97027 6.04392 3.50024 6.57625 3.50024 7.20801V8.79199C3.50024 9.4228 3.96836 9.95504 4.57544 10.0322C5.84911 10.1947 7.00219 10.25 8.00024 10.25C9.23789 10.25 10.3764 10.1655 11.3967 10.0361C12.0301 9.956 12.5002 9.42369 12.5002 8.79199V7.20801C12.5002 6.57738 12.0329 6.0452 11.426 5.96777C10.1524 5.8053 8.9983 5.75001 8.00024 5.75Z" fill="black"/>
<path d="M3.97095 1C4.14395 1.142 4.34342 1.25223 4.57642 1.28223C6.82718 1.57016 9.13796 1.57207 11.3967 1.28613C11.6367 1.25614 11.8428 1.14394 12.0198 1H13.8254C13.4754 1.93498 12.6291 2.64239 11.5862 2.77441C10.3992 2.92441 9.19316 2.99999 8.00122 3C6.79622 3 5.57996 2.92348 4.38696 2.77148C3.35697 2.63948 2.52105 1.93399 2.17505 1H3.97095Z" fill="black"/>
</svg>

<!-- This Source Code Form is subject to the terms of the Mozilla Public
   - License, v. 2.0. If a copy of the MPL was not distributed with this
   - file, You can obtain one at http://mozilla.org/MPL/2.0/. -->
<svg xmlns="http://www.w3.org/2000/svg" width="16" height="16" fill="context-fill" fill-opacity="context-fill-opacity" viewBox="0 0 16 16">
    <path d="M4.415 13.224c2.387-.301 4.827-.3 7.2.003A2.74 2.74 0 0 1 13.826 15h-1.795a1.2 1.2 0 0 0-.606-.283 27.2 27.2 0 0 0-6.821-.004 1.24 1.24 0 0 0-.625.287H2.175a2.77 2.77 0 0 1 2.24-1.776" />
    <path fill-rule="evenodd" d="M8 4.25c1.054 0 2.271.059 3.616.23l-.002.001C12.99 4.656 14 5.841 14 7.208v1.584a2.755 2.755 0 0 1-2.415 2.732 28.5 28.5 0 0 1-7.2-.004C3.011 11.344 2 10.159 2 8.792V7.208a2.755 2.755 0 0 1 2.415-2.732A29 29 0 0 1 8 4.25m0 1.5c-1.237 0-2.376.085-3.396.214A1.255 1.255 0 0 0 3.5 7.208v1.584c0 .63.468 1.163 1.075 1.24a27 27 0 0 0 6.822.004A1.255 1.255 0 0 0 12.5 8.792V7.208c0-.63-.467-1.163-1.074-1.24A27 27 0 0 0 8 5.75" clip-rule="evenodd" />
    <path d="M3.971 1c.173.142.372.252.605.282 2.251.288 4.562.29 6.82.004.24-.03.447-.142.624-.286h1.805a2.77 2.77 0 0 1-2.239 1.774 28.7 28.7 0 0 1-7.199-.003A2.74 2.74 0 0 1 2.175 1z" />
</svg>
